assets/sprite/svg/objects/World_Space_UX.svg

<svg height="155" viewBox="0 0 1320 155" width="1320" xmlns="http://www.w3.org/2000/svg"><g fill="#2e6082"><path d="m31.8 121.6v-15.12h-15.13v-90.78h30.26v90.78h45.39v-90.78h30.26v90.78h-15.13v15.12z"/><path d="m137.71 121.6v-30.25h15.12v-15.13h15.17v-15.13h-15.17v-15.09h-15.12v-30.3h30.29v30.3h15.13v15.09h15.13v-15.09h15.13v-30.3h30.26v30.3h-15.17v15.09h-15.13v15.13h15.13v15.13h15.13v30.25h-30.26v-30.25h-15.13v-15.13h-15.13v15.13h-15.09v30.25z"/><path d="m328.77 121.6v-105.9h75.65v15.13h15.13v15.17h15.13v45.35h-15.13v15.13h-15.13v15.12zm30.23-15.12h30.26v-15.13h15.13v-45.35h-15.1v-15.17h-30.29z"/><path d="m449.81 121.6v-105.9h105.9v15.13h-75.65v30.26h60.52v15.13h-60.52v30.26h75.65v15.12z"/><path d="m586 121.6v-15.12h-15.16v-15.13h30.26v15.13h45.38v-30.26h-60.48v-15.13h-15.16v-30.26h15.16v-15.13h75.64v15.13h15.13v15.17h-30.29v-15.17h-45.38v30.26h60.51v15.13h15.13v30.26h-15.13v15.12z"/><path d="m707 121.6v-15.12h30.26v-75.65h-30.26v-15.13h90.78v15.13h-30.26v75.65h30.26v15.12z"/><path d="m843.17 121.6v-15.12h-15.17v-15.13h-15.09v-45.35h15.09v-15.17h15.13v-15.13h75.64v15.13h-60.48v15.17h-15.12v45.35h15.12v15.13h30.26v-30.26h-15.13v-15.13h45.39v60.51z"/><path d="m933.94 121.6v-105.9h30.26v15.13h15.13v15.17h15.13v15.09h15.12v-45.39h30.26v105.9h-30.26v-30.25h-15.12v-15.13h-15.13v-15.13h-15.13v60.51z"/><path d="m1055 121.6v-105.9h105.91v15.13h-75.65v30.26h60.52v15.13h-60.52v30.26h75.65v15.12z"/><path d="m1176 121.6v-105.9h90.77v15.13h15.13v45.39h-30.26v15.13h15.13v15.13h15.13v15.12h-45.39v-15.12h-15.13v-15.13h-15.12v30.25zm30.26-45.38h30.25v-15.13h15.13v-30.26h-45.38z"/></g><path d="m43.8 132.6v-15.12h-15.13v-90.78h30.26v90.78h45.39v-90.78h30.26v90.78h-15.13v15.12z" fill="#3b7cb2"/><path d="m149.71 132.6v-30.25h15.12v-15.13h15.17v-15.13h-15.17v-15.09h-15.12v-30.3h30.29v30.3h15.13v15.09h15.13v-15.09h15.13v-30.3h30.26v30.3h-15.17v15.09h-15.13v15.13h15.13v15.13h15.13v30.25h-30.26v-30.25h-15.13v-15.13h-15.13v15.13h-15.09v30.25z" fill="#3b7cb2"/><path d="m340.77 132.6v-105.9h75.65v15.13h15.13v15.17h15.13v45.39h-15.13v15.13h-15.13v15.08zm30.23-15.12h30.26v-15.13h15.13v-45.35h-15.1v-15.17h-30.29z" fill="#3b7cb2"/><path d="m461.81 132.6v-105.9h105.9v15.13h-75.65v30.26h60.52v15.13h-60.52v30.26h75.65v15.12z" fill="#3b7cb2"/><path d="m598 132.6v-15.12h-15.16v-15.13h30.26v15.13h45.38v-30.26h-60.48v-15.13h-15.16v-30.26h15.16v-15.13h75.64v15.13h15.13v15.17h-30.29v-15.17h-45.38v30.26h60.51v15.13h15.13v30.26h-15.13v15.12z" fill="#3b7cb2"/><path d="m719 132.6v-15.12h30.26v-75.65h-30.26v-15.13h90.78v15.13h-30.26v75.65h30.26v15.12z" fill="#3b7cb2"/><path d="m855.17 132.6v-15.12h-15.17v-15.13h-15.09v-45.35h15.09v-15.17h15.13v-15.13h75.64v15.13h-60.48v15.17h-15.12v45.39h15.12v15.13h30.26v-30.3h-15.13v-15.13h45.39v60.51z" fill="#3b7cb2"/><path d="m945.94 132.6v-105.9h30.26v15.13h15.13v15.17h15.13v15.09h15.12v-45.39h30.26v105.9h-30.26v-30.25h-15.12v-15.13h-15.13v-15.13h-15.13v60.51z" fill="#3b7cb2"/><path d="m1067 132.6v-105.9h105.91v15.13h-75.65v30.26h60.52v15.13h-60.52v30.26h75.65v15.12z" fill="#3b7cb2"/><path d="m1188 132.6v-105.9h90.77v15.13h15.13v45.39h-30.26v15.13h15.13v15.13h15.13v15.12h-45.39v-15.12h-15.13v-15.13h-15.12v30.25zm30.26-45.38h30.25v-15.13h15.13v-30.26h-45.38z" fill="#3b7cb2"/><path d="m55.8 142.6v-15.12h-15.13v-90.78h30.26v90.78h45.39v-90.78h30.26v90.78h-15.13v15.12z" fill="#4d9bf7"/><path d="m161.71 142.6v-30.25h15.12v-15.13h15.17v-15.13h-15.17v-15.09h-15.12v-30.3h30.29v30.3h15.13v15.09h15.13v-15.09h15.13v-30.3h30.26v30.3h-15.17v15.09h-15.13v15.13h15.13v15.13h15.13v30.25h-30.26v-30.25h-15.13v-15.13h-15.13v15.13h-15.09v30.25z" fill="#4d9bf7"/><path d="m352.77 142.6v-105.9h75.65v15.13h15.13v15.17h15.13v45.39h-15.13v15.13h-15.13v15.08zm30.23-15.12h30.26v-15.13h15.13v-45.35h-15.1v-15.17h-30.29z" fill="#4d9bf7"/><path d="m473.81 142.6v-105.9h105.9v15.13h-75.65v30.26h60.52v15.13h-60.52v30.26h75.65v15.12z" fill="#4d9bf7"/><path d="m610 142.6v-15.12h-15.16v-15.13h30.26v15.13h45.38v-30.26h-60.48v-15.13h-15.16v-30.26h15.16v-15.13h75.64v15.13h15.13v15.17h-30.29v-15.17h-45.38v30.26h60.51v15.13h15.13v30.26h-15.13v15.12z" fill="#4d9bf7"/><path d="m731 142.6v-15.12h30.26v-75.65h-30.26v-15.13h90.78v15.13h-30.26v75.65h30.26v15.12z" fill="#4d9bf7"/><path d="m867.17 142.6v-15.12h-15.17v-15.13h-15.09v-45.35h15.09v-15.17h15.13v-15.13h75.64v15.13h-60.48v15.17h-15.12v45.39h15.12v15.13h30.26v-30.3h-15.13v-15.13h45.39v60.51z" fill="#4d9bf7"/><path d="m957.94 142.6v-105.9h30.26v15.13h15.13v15.17h15.13v15.09h15.12v-45.39h30.26v105.9h-30.26v-30.25h-15.12v-15.13h-15.13v-15.13h-15.13v60.51z" fill="#4d9bf7"/><path d="m1079 142.6v-105.9h105.91v15.13h-75.65v30.26h60.52v15.13h-60.52v30.26h75.65v15.12z" fill="#4d9bf7"/><path d="m1200 142.6v-105.9h90.77v15.13h15.13v45.39h-30.26v15.13h15.13v15.13h15.13v15.12h-45.39v-15.12h-15.13v-15.13h-15.12v30.25zm30.26-45.38h30.25v-15.13h15.13v-30.26h-45.38z" fill="#4d9bf7"/></svg>

<svg xmlns="http://www.w3.org/2000/svg" width="1320" height="155" viewBox="0 0 1320 155"><title>World_Space</title><g id="Layer_7" data-name="Layer 7"><path d="M31.8,121.6V106.48H16.67V15.7H46.93v90.78H92.32V15.7h30.26v90.78H107.45V121.6Z" style="fill:#2e6082"/><path d="M137.71,121.6V91.35h15.12V76.22H168V61.09H152.83V46H137.71V15.7H168V46h15.13V61.09h15.13V46h15.13V15.7h30.26V46H228.48V61.09H213.35V76.22h15.13V91.35h15.13V121.6H213.35V91.35H198.22V76.22H183.09V91.35H168V121.6Z" style="fill:#2e6082"/><path d="M328.77,121.6V15.7h75.65V30.83h15.13V46h15.13V91.35H419.55v15.13H404.42V121.6ZM359,106.48h30.26V91.35h15.13V46H389.29V30.83H359Z" style="fill:#2e6082"/><path d="M449.81,121.6V15.7h105.9V30.83H480.06V61.09h60.52V76.22H480.06v30.26h75.65V121.6Z" style="fill:#2e6082"/><path d="M586,121.6V106.48H570.84V91.35H601.1v15.13h45.38V76.22H586V61.09H570.84V30.83H586V15.7h75.64V30.83h15.13V46H646.48V30.83H601.1V61.09h60.51V76.22h15.13v30.26H661.61V121.6Z" style="fill:#2e6082"/><path d="M707,121.6V106.48h30.26V30.83H707V15.7h90.78V30.83H767.52v75.65h30.26V121.6Z" style="fill:#2e6082"/><path d="M843.17,121.6V106.48H828V91.35H812.91V46H828V30.83h15.13V15.7h75.64V30.83H858.29V46H843.17V91.35h15.12v15.13h30.26V76.22H873.42V61.09h45.39V121.6Z" style="fill:#2e6082"/><path d="M933.94,121.6V15.7H964.2V30.83h15.13V46h15.13V61.09h15.12V15.7h30.26V121.6h-30.26V91.35H994.46V76.22H979.33V61.09H964.2V121.6Z" style="fill:#2e6082"/><path d="M1055,121.6V15.7h105.91V30.83h-75.65V61.09h60.52V76.22h-60.52v30.26h75.65V121.6Z" style="fill:#2e6082"/><path d="M1176,121.6V15.7h90.77V30.83h15.13V76.22h-30.26V91.35h15.13v15.13h15.13V121.6h-45.39V106.48h-15.13V91.35h-15.12V121.6Zm30.26-45.38h30.25V61.09h15.13V30.83h-45.38Z" style="fill:#2e6082"/><path d="M43.8,132.6V117.48H28.67V26.7H58.93v90.78h45.39V26.7h30.26v90.78H119.45V132.6Z" style="fill:#3b7cb2"/><path d="M149.71,132.6V102.35h15.12V87.22H180V72.09H164.83V57H149.71V26.7H180V57h15.13V72.09h15.13V57h15.13V26.7h30.26V57H240.48V72.09H225.35V87.22h15.13v15.13h15.13V132.6H225.35V102.35H210.22V87.22H195.09v15.13H180V132.6Z" style="fill:#3b7cb2"/><path d="M340.77,132.6V26.7h75.65V41.83h15.13V57h15.13v45.39H431.55v15.13H416.42V132.6ZM371,117.48h30.26V102.35h15.13V57H401.29V41.83H371Z" style="fill:#3b7cb2"/><path d="M461.81,132.6V26.7h105.9V41.83H492.06V72.09h60.52V87.22H492.06v30.26h75.65V132.6Z" style="fill:#3b7cb2"/><path d="M598,132.6V117.48H582.84V102.35H613.1v15.13h45.38V87.22H598V72.09H582.84V41.83H598V26.7h75.64V41.83h15.13V57H658.48V41.83H613.1V72.09h60.51V87.22h15.13v30.26H673.61V132.6Z" style="fill:#3b7cb2"/><path d="M719,132.6V117.48h30.26V41.83H719V26.7h90.78V41.83H779.52v75.65h30.26V132.6Z" style="fill:#3b7cb2"/><path d="M855.17,132.6V117.48H840V102.35H824.91V57H840V41.83h15.13V26.7h75.64V41.83H870.29V57H855.17v45.39h15.12v15.13h30.26V87.22H885.42V72.09h45.39V132.6Z" style="fill:#3b7cb2"/><path d="M945.94,132.6V26.7H976.2V41.83h15.13V57h15.13V72.09h15.12V26.7h30.26V132.6h-30.26V102.35h-15.12V87.22H991.33V72.09H976.2V132.6Z" style="fill:#3b7cb2"/><path d="M1067,132.6V26.7h105.91V41.83h-75.65V72.09h60.52V87.22h-60.52v30.26h75.65V132.6Z" style="fill:#3b7cb2"/><path d="M1188,132.6V26.7h90.77V41.83h15.13V87.22h-30.26v15.13h15.13v15.13h15.13V132.6h-45.39V117.48h-15.13V102.35h-15.12V132.6Zm30.26-45.38h30.25V72.09h15.13V41.83h-45.38Z" style="fill:#3b7cb2"/><path d="M55.8,142.6V127.48H40.67V36.7H70.93v90.78h45.39V36.7h30.26v90.78H131.45V142.6Z" style="fill:#4d9bf7"/><path d="M161.71,142.6V112.35h15.12V97.22H192V82.09H176.83V67H161.71V36.7H192V67h15.13V82.09h15.13V67h15.13V36.7h30.26V67H252.48V82.09H237.35V97.22h15.13v15.13h15.13V142.6H237.35V112.35H222.22V97.22H207.09v15.13H192V142.6Z" style="fill:#4d9bf7"/><path d="M352.77,142.6V36.7h75.65V51.83h15.13V67h15.13v45.39H443.55v15.13H428.42V142.6ZM383,127.48h30.26V112.35h15.13V67H413.29V51.83H383Z" style="fill:#4d9bf7"/><path d="M473.81,142.6V36.7h105.9V51.83H504.06V82.09h60.52V97.22H504.06v30.26h75.65V142.6Z" style="fill:#4d9bf7"/><path d="M610,142.6V127.48H594.84V112.35H625.1v15.13h45.38V97.22H610V82.09H594.84V51.83H610V36.7h75.64V51.83h15.13V67H670.48V51.83H625.1V82.09h60.51V97.22h15.13v30.26H685.61V142.6Z" style="fill:#4d9bf7"/><path d="M731,142.6V127.48h30.26V51.83H731V36.7h90.78V51.83H791.52v75.65h30.26V142.6Z" style="fill:#4d9bf7"/><path d="M867.17,142.6V127.48H852V112.35H836.91V67H852V51.83h15.13V36.7h75.64V51.83H882.29V67H867.17v45.39h15.12v15.13h30.26V97.22H897.42V82.09h45.39V142.6Z" style="fill:#4d9bf7"/><path d="M957.94,142.6V36.7H988.2V51.83h15.13V67h15.13V82.09h15.12V36.7h30.26V142.6h-30.26V112.35h-15.12V97.22h-15.13V82.09H988.2V142.6Z" style="fill:#4d9bf7"/><path d="M1079,142.6V36.7h105.91V51.83h-75.65V82.09h60.52V97.22h-60.52v30.26h75.65V142.6Z" style="fill:#4d9bf7"/><path d="M1200,142.6V36.7h90.77V51.83h15.13V97.22h-30.26v15.13h15.13v15.13h15.13V142.6h-45.39V127.48h-15.13V112.35h-15.12V142.6Zm30.26-45.38h30.25V82.09h15.13V51.83h-45.38Z" style="fill:#4d9bf7"/></g></svg>
